source/img/sprite.svg

<?xml version="1.0" encoding="UTF-8"?><!DOCTYPE svg PUBLIC "-//W3C//DTD SVG 1.1//EN" "http://www.w3.org/Graphics/SVG/1.1/DTD/svg11.dtd"><svg xmlns="http://www.w3.org/2000/svg" xmlns:xlink="http://www.w3.org/1999/xlink"><symbol id="icon-s-burger" viewBox="0 0 76 68"><g fill="#81b3d2"><path d="m71.7113 45.3324h-67.42259c-2.3937 0-4.28871 1.971-4.28871 4.2376v3.4492c0 2.2666 1.89501 4.139 4.28871 4.139h.99738v.9855c0 5.4202 4.48819 9.7563 9.87401 9.7563h45.6798c5.4856 0 9.874-4.4347 9.874-9.7563v-.9855h.9974c2.294 0 4.2887-1.8724 4.2887-4.2376v-3.4492c0-2.168-1.895-4.139-4.2887-4.139zm-3.8898 12.8113c0 3.7449-3.0918 6.7999-6.8819 6.7999h-45.8792c-3.7901 0-6.88192-3.055-6.88192-6.7999v-.9855h59.64302zm5.1864-5.2231c0 .6899-.5984 1.2812-1.2966 1.2812h-67.42259c-.69816 0-1.29658-.5913-1.29658-1.2812v-3.4492c0-.5913.59842-1.1825 1.29658-1.1825h67.52229c.6982 0 1.2966.5912 1.2966 1.2811v3.3506z"/><path d="m16.1575 37.3496 5.3859 3.9419 5.4855-3.9419 5.4856 3.9419 5.4855-3.9419 5.3859 3.9419 5.4855-3.9419 5.4856 3.9419 5.4856-3.9419 5.4855 3.9419 6.2835-4.6318-1.6955-2.3651-4.588 3.2521-5.4855-3.942-5.4856 3.942-5.4856-3.942-5.4855 3.942-5.3859-3.942-5.4855 3.942-5.4856-3.942-5.4855 3.942-5.3859-3.942-5.4855 3.942-4.58797-3.2521-1.79527 2.3651 6.38324 4.6318z"/><path d="m70.7138 30.6486c0-.5913.0998-2.5622 0-2.9564-.6981-15.3736-15.0603-27.6922-32.7139-27.6922-17.6535 0-32.11546 12.3186-32.81362 27.6922v2.9564zm-32.7139-27.69214c15.958 0 29.1234 11.03744 29.7218 24.73574h-59.54329c.69816-13.6983 13.86349-24.73574 29.82149-24.73574z"/><path d="m38 16.7532c1.1017 0 1.9948-.8824 1.9948-1.9709 0-1.0886-.8931-1.971-1.9948-1.971s-1.9948.8824-1.9948 1.971c0 1.0885.8931 1.9709 1.9948 1.9709z"/><path d="m30.021 11.924c1.1017 0 1.9947-.8824 1.9947-1.97097 0-1.08854-.893-1.97097-1.9947-1.97097s-1.9948.88243-1.9948 1.97097c0 1.08857.8931 1.97097 1.9948 1.97097z"/><path d="m45.979 11.924c1.1017 0 1.9948-.8824 1.9948-1.97097 0-1.08854-.8931-1.97097-1.9948-1.97097s-1.9947.88243-1.9947 1.97097c0 1.08857.893 1.97097 1.9947 1.97097z"/></g></symbol><symbol id="icon-s-gift" viewBox="0 0 64 75"><path d="m61.1556 22.1167h-.1016-24.6857c13.8158-6.7978 14.9333-11.0965 14.4254-13.49572-1.1175-3.89877-5.6889-6.89782-9.9556-5.29832-5.5873 2.09933-7.1111 10.29674-8.6349 16.19484-1.9302-5.9981-3.7588-13.59567-8.127-17.49443-1.2191-1.099656-3.0476-2.199309-5.7905-1.9993718-4.0635.3998738-9.85395 5.2983218-7.4159 10.7966018 2.235 5.2983 9.6508 8.6972 14.6286 11.3964h-22.65396c-1.62539 0-2.84444 1.2996-2.84444 2.7991v11.1965c0 1.5995 1.32063 2.7991 2.84444 2.7991h.30477v35.9886h57.90479v-35.9886h.1016c1.6254 0 2.8444-1.2996 2.8444-2.7991v-11.1965c0-1.5995-1.3206-2.8991-2.8444-2.8991zm-18.6921-16.29483c2.1333-.29991 4.9778 1.29959 5.2825 3.19898.4064 2.69915-3.3523 5.19835-5.0793 6.29805-2.5397 1.6994-4.9778 2.5991-7.3143 3.9987.8127-3.6988 2.5397-12.89592 7.1111-13.49573zm-22.9587 9.79693c-2.235-1.4996-6.5016-4.3986-6.4-7.6976.1015-3.59886 5.7904-6.49794 8.8381-3.7988 3.8603 3.29896 5.6888 10.9965 7.1111 16.3948-3.2508-1.5995-6.2984-2.7991-9.5492-4.8984zm5.9936 56.3821h-19.40316v-32.9895h19.40316zm0-35.9886h-22.45078v-10.8965h22.45078zm10.1587 35.9886h-7.2127v-46.8851h7.2127zm22.3493 0h-19.3016v-32.9895h19.4031v32.9895zm2.946-35.9886h-22.2476v-10.8965h22.2476z" fill="#81b3d2"/></symbol><symbol id="icon-s-house" viewBox="0 0 75 72"><path d="M29.6185 64.9389H45.6827V41.1709H29.6185V64.9389ZM42.7711 62.0549H32.5301V44.0549H42.6707V62.0549H42.7711Z" fill="#81B3D2"/><path d="M72.8916 39.1823L75 37.0939L65.0602 27.2486V0.39779H51.2048V13.5249L37.4498 0L0 37.1934L2.10843 39.2818L9.93976 31.5249V69.116H6.0241V72H70.1807V69.116H65.0602V31.4254L72.8916 39.1823ZM54.1165 3.38122H62.0482V24.3646L54.1165 16.5083V3.38122ZM62.1486 69.0166H12.9518V28.5414L37.4498 4.1768L62.0482 28.5414V69.0166H62.1486Z" fill="#81B3D2"/><path d="M29.9197 27.0491C29.9197 31.3253 33.4338 34.806 37.6507 34.806C41.9679 34.806 45.482 31.3253 45.482 27.0491C45.482 22.7728 41.9679 19.3916 37.6507 19.3916C33.3334 19.3916 29.9197 22.7728 29.9197 27.0491ZM37.6507 22.0767C40.3615 22.0767 42.6707 24.2645 42.6707 27.0491C42.6707 29.7341 40.4619 32.0214 37.6507 32.0214C34.9398 32.0214 32.6306 29.8336 32.6306 27.0491C32.6306 24.364 34.9398 22.0767 37.6507 22.0767Z" fill="#81B3D2"/><path d="M19.9799 41.1709H16.9679V45.0493H19.9799V41.1709Z" fill="#81B3D2"/><path d="M25.9036 41.1709H22.8915V45.0493H25.9036V41.1709Z" fill="#81B3D2"/><path d="M19.9799 47.1387H16.9679V51.0171H19.9799V47.1387Z" fill="#81B3D2"/><path d="M25.9036 47.1387H22.8915V51.0171H25.9036V47.1387Z" fill="#81B3D2"/><path d="M52.008 41.1709H48.996V45.0493H52.008V41.1709Z" fill="#81B3D2"/><path d="M58.0321 41.1709H55.0201V45.0493H58.0321V41.1709Z" fill="#81B3D2"/><path d="M52.008 47.1387H48.996V51.0171H52.008V47.1387Z" fill="#81B3D2"/><path d="M58.0321 47.1387H55.0201V51.0171H58.0321V47.1387Z" fill="#81B3D2"/></symbol></svg>

<svg xmlns="http://www.w3.org/2000/svg"><symbol id="icon-s-burger" viewBox="0 0 76 68"><g fill="#81b3d2"><path d="M71.711 45.332H4.29C1.895 45.332 0 47.303 0 49.57v3.45c0 2.266 1.895 4.138 4.289 4.138h.997v.986c0 5.42 4.488 9.756 9.874 9.756h45.68c5.485 0 9.874-4.435 9.874-9.756v-.986h.997c2.294 0 4.289-1.872 4.289-4.237v-3.45c0-2.168-1.895-4.139-4.289-4.139zm-3.89 12.812c0 3.745-3.091 6.8-6.881 6.8H15.06c-3.79 0-6.882-3.055-6.882-6.8v-.986h59.644zm5.187-5.223c0 .69-.598 1.28-1.297 1.28H4.29c-.698 0-1.297-.59-1.297-1.28v-3.45c0-.59.599-1.182 1.297-1.182h67.52c.698 0 1.297.591 1.297 1.281v3.35zM16.157 37.35l5.386 3.942 5.486-3.942 5.486 3.942L38 37.35l5.386 3.942 5.485-3.942 5.486 3.942 5.486-3.942 5.485 3.942 6.284-4.632-1.696-2.365-4.588 3.252-5.485-3.942-5.486 3.942-5.486-3.942-5.485 3.942L38 33.605l-5.485 3.942-5.486-3.942-5.486 3.942-5.385-3.942-5.486 3.942-4.588-3.252-1.795 2.365 6.383 4.632zm54.557-6.701c0-.592.1-2.563 0-2.957C70.016 12.32 55.654 0 38 0 20.346 0 5.884 12.319 5.186 27.692v2.957zM38 2.956c15.958 0 29.123 11.038 29.722 24.736H8.178C8.877 13.994 22.042 2.956 38 2.956z"/><path d="M38 16.753a1.983 1.983 0 001.995-1.97c0-1.09-.893-1.972-1.995-1.972s-1.995.883-1.995 1.971c0 1.089.893 1.971 1.995 1.971zm-7.979-4.829a1.983 1.983 0 001.995-1.971c0-1.089-.893-1.97-1.995-1.97s-1.995.881-1.995 1.97.893 1.971 1.995 1.971zm15.958 0a1.983 1.983 0 001.995-1.971c0-1.089-.893-1.97-1.995-1.97s-1.995.881-1.995 1.97.893 1.971 1.995 1.971z"/></g></symbol><symbol id="icon-s-gift" viewBox="0 0 64 75"><path d="M61.156 22.117H36.368C50.184 15.319 51.302 11.02 50.794 8.62c-1.118-3.899-5.69-6.898-9.956-5.298-5.587 2.099-7.111 10.296-8.635 16.195-1.93-5.999-3.759-13.596-8.127-17.495-1.219-1.1-3.047-2.2-5.79-2-4.064.4-9.854 5.299-7.416 10.797 2.235 5.299 9.65 8.697 14.628 11.397H2.844A2.817 2.817 0 000 25.016v11.196c0 1.6 1.32 2.8 2.844 2.8h.305V75h57.905V39.011h.102c1.625 0 2.844-1.3 2.844-2.799V25.016c0-1.6-1.32-2.9-2.844-2.9zM42.464 5.822c2.133-.3 4.977 1.3 5.282 3.199.406 2.699-3.352 5.198-5.08 6.298-2.539 1.7-4.977 2.599-7.314 3.999.813-3.7 2.54-12.896 7.111-13.496zm-22.96 9.797c-2.234-1.5-6.5-4.399-6.4-7.698.102-3.599 5.791-6.498 8.839-3.799 3.86 3.3 5.689 10.997 7.111 16.395-3.25-1.6-6.298-2.799-9.55-4.898zM25.499 72H6.095V39.01h19.403zm0-35.989H3.048V25.116h22.45zM35.659 72h-7.214V25.116h7.213zm22.348 0H38.705V39.01h19.403V72zm2.946-35.989H38.705V25.116h22.247z" fill="#81b3d2"/></symbol><symbol id="icon-s-house" viewBox="0 0 75 72"><path d="M29.619 64.939h16.064V41.17H29.619v23.768zm13.152-2.884h-10.24v-18h10.14v18h.1z" fill="#81B3D2"/><path d="M72.892 39.182L75 37.094l-9.94-9.845V.398H51.205v13.127L37.45 0 0 37.193l2.108 2.089 7.832-7.757v37.591H6.024V72h64.157v-2.884h-5.12v-37.69l7.83 7.756zm-18.775-35.8h7.931v20.983l-7.931-7.857V3.381zm8.032 65.635H12.952V28.54L37.45 4.177 62.048 28.54v40.476h.1z" fill="#81B3D2"/><path d="M29.92 27.05c0 4.275 3.514 7.756 7.73 7.756 4.318 0 7.832-3.48 7.832-7.757 0-4.276-3.514-7.657-7.831-7.657-4.318 0-7.731 3.38-7.731 7.657zm7.73-4.973c2.712 0 5.02 2.188 5.02 4.972 0 2.685-2.208 4.972-5.02 4.972-2.71 0-5.02-2.187-5.02-4.972 0-2.685 2.31-4.972 5.02-4.972zM19.98 41.17h-3.012v3.88h3.012v-3.88zm5.924 0h-3.012v3.88h3.012v-3.88zm-5.924 5.969h-3.012v3.878h3.012V47.14zm5.924 0h-3.012v3.878h3.012V47.14zm26.104-5.969h-3.012v3.88h3.012v-3.88zm6.024 0H55.02v3.88h3.012v-3.88zm-6.024 5.969h-3.012v3.878h3.012V47.14zm6.024 0H55.02v3.878h3.012V47.14z" fill="#81B3D2"/></symbol></svg>
